gama.ui.shared/icons_svg/light/generic/menu.switch.svg

<?xml version="1.0" encoding="UTF-8" standalone="no"?>
<!DOCTYPE svg PUBLIC "-//W3C//DTD SVG 1.1//EN" "http://www.w3.org/Graphics/SVG/1.1/DTD/svg11.dtd">
<svg version="1.1" xmlns="http://www.w3.org/2000/svg" xmlns:xl="http://www.w3.org/1999/xlink" xmlns:dc="http://purl.org/dc/elements/1.1/" viewBox="-161.07295 -3652.011 25 25" width="25" height="25">
  <defs/>
  <g id="SOURCES" stroke-dasharray="none" fill="none" stroke="none" fill-opacity="1" stroke-opacity="1">
    <title>SOURCES</title>
    <g id="SOURCES_Calque_2">
      <title>Calque 2</title>
      <g id="Graphic_9325">
        <path d="M -156.73295 -3651.511 L -140.41295 -3651.511 C -138.29217 -3651.511 -136.57295 -3649.7916 -136.57295 -3647.671 L -136.57295 -3631.351 C -136.57295 -3629.23 -138.29217 -3627.511 -140.41295 -3627.511 L -156.73295 -3627.511 C -158.85372 -3627.511 -160.57295 -3629.23 -160.57295 -3631.351 L -160.57295 -3647.671 C -160.57295 -3649.7916 -158.85372 -3651.511 -156.73295 -3651.511 Z" fill="white"/>
        <path d="M -156.73295 -3651.511 L -140.41295 -3651.511 C -138.29217 -3651.511 -136.57295 -3649.7916 -136.57295 -3647.671 L -136.57295 -3631.351 C -136.57295 -3629.23 -138.29217 -3627.511 -140.41295 -3627.511 L -156.73295 -3627.511 C -158.85372 -3627.511 -160.57295 -3629.23 -160.57295 -3631.351 L -160.57295 -3647.671 C -160.57295 -3649.7916 -158.85372 -3651.511 -156.73295 -3651.511 Z" stroke="black" stroke-linecap="round" stroke-linejoin="round" stroke-width=".25"/>
      </g>
      <g id="Group_9326">
        <title>duplicate-alt</title>
        <g id="Graphic_9327">
          <path d="M -146.74095 -3639.511 L -152.97295 -3639.511 C -153.19695 -3639.511 -153.37295 -3639.687 -153.37295 -3639.911 C -153.37295 -3640.135 -153.19695 -3640.311 -152.97295 -3640.311 L -146.74095 -3640.311 L -148.46095 -3642.031 C -148.62095 -3642.191 -148.62095 -3642.439 -148.46095 -3642.599 C -148.30095 -3642.759 -148.05295 -3642.759 -147.89295 -3642.599 L -145.49295 -3640.199 C -145.33295 -3640.039 -145.33295 -3639.791 -145.49295 -3639.631 L -147.89295 -3637.231 C -148.05295 -3637.071 -148.30095 -3637.071 -148.46095 -3637.231 C -148.62095 -3637.391 -148.62095 -3637.639 -148.46095 -3637.799 L -146.74095 -3639.519 Z M -150.17295 -3644.711 C -150.17295 -3644.487 -150.34895 -3644.311 -150.57295 -3644.311 C -150.79695 -3644.311 -150.97295 -3644.487 -150.97295 -3644.711 C -150.97295 -3645.815 -150.07695 -3646.711 -148.97295 -3646.711 L -142.57295 -3646.711 C -141.46895 -3646.711 -140.57295 -3645.815 -140.57295 -3644.711 L -140.57295 -3634.311 C -140.57295 -3633.207 -141.46895 -3632.311 -142.57295 -3632.311 L -148.97295 -3632.311 C -150.07695 -3632.311 -150.97295 -3633.207 -150.97295 -3634.311 C -150.97295 -3634.535 -150.79695 -3634.711 -150.57295 -3634.711 C -150.34895 -3634.711 -150.17295 -3634.535 -150.17295 -3634.311 C -150.17295 -3633.647 -149.63695 -3633.111 -148.97295 -3633.111 L -142.57295 -3633.111 C -141.90895 -3633.111 -141.37295 -3633.647 -141.37295 -3634.311 L -141.37295 -3644.711 C -141.37295 -3645.375 -141.90895 -3645.911 -142.57295 -3645.911 L -148.97295 -3645.911 C -149.63695 -3645.911 -150.17295 -3645.375 -150.17295 -3644.711 Z M -152.17295 -3633.111 C -151.94895 -3633.111 -151.77295 -3632.935 -151.77295 -3632.711 C -151.77295 -3632.487 -151.94895 -3632.311 -152.17295 -3632.311 L -154.57295 -3632.311 C -155.67695 -3632.311 -156.57295 -3633.207 -156.57295 -3634.311 L -156.57295 -3644.711 C -156.57295 -3645.815 -155.67695 -3646.711 -154.57295 -3646.711 L -152.17295 -3646.711 C -151.94895 -3646.711 -151.77295 -3646.535 -151.77295 -3646.311 C -151.77295 -3646.087 -151.94895 -3645.911 -152.17295 -3645.911 L -154.57295 -3645.911 C -155.23695 -3645.911 -155.77295 -3645.375 -155.77295 -3644.711 L -155.77295 -3634.311 C -155.77295 -3633.647 -155.23695 -3633.111 -154.57295 -3633.111 Z" fill="#5c75a0"/>
        </g>
      </g>
    </g>
  </g>
</svg>

<svg height="25" viewBox="-161.073 -3652.011 25 25" width="25" xmlns="http://www.w3.org/2000/svg"><g fill="none"><path d="m-156.73295-3651.511h16.32c2.12078 0 3.84 1.7194 3.84 3.84v16.32c0 2.121-1.71922 3.84-3.84 3.84h-16.32c-2.12077 0-3.84-1.719-3.84-3.84v-16.32c0-2.1206 1.71923-3.84 3.84-3.84z" fill="#fff"/><path d="m-156.73295-3651.511h16.32c2.12078 0 3.84 1.7194 3.84 3.84v16.32c0 2.121-1.71922 3.84-3.84 3.84h-16.32c-2.12077 0-3.84-1.719-3.84-3.84v-16.32c0-2.1206 1.71923-3.84 3.84-3.84z" stroke="#000" stroke-linecap="round" stroke-linejoin="round" stroke-width=".25"/><path d="m-146.74095-3639.511h-6.232c-.224 0-.4-.176-.4-.4s.176-.4.4-.4h6.232l-1.72-1.72c-.16-.16-.16-.408 0-.568s.408-.16.568 0l2.4 2.4c.16.16.16.408 0 .568l-2.4 2.4c-.16.16-.408.16-.568 0s-.16-.408 0-.568l1.72-1.72zm-3.432-5.2c0 .224-.176.4-.4.4s-.4-.176-.4-.4c0-1.104.896-2 2-2h6.4c1.104 0 2 .896 2 2v10.4c0 1.104-.896 2-2 2h-6.4c-1.104 0-2-.896-2-2 0-.224.176-.4.4-.4s.4.176.4.4c0 .664.536 1.2 1.2 1.2h6.4c.664 0 1.2-.536 1.2-1.2v-10.4c0-.664-.536-1.2-1.2-1.2h-6.4c-.664 0-1.2.536-1.2 1.2zm-2 11.6c.224 0 .4.176.4.4s-.176.4-.4.4h-2.4c-1.104 0-2-.896-2-2v-10.4c0-1.104.896-2 2-2h2.4c.224 0 .4.176.4.4s-.176.4-.4.4h-2.4c-.664 0-1.2.536-1.2 1.2v10.4c0 .664.536 1.2 1.2 1.2z" fill="#5c75a0"/></g></svg>
